static/characters/uzukumari/back-standing.svg

<svg width="160" height="182" xmlns="http://www.w3.org/2000/svg" xml:space="preserve" style="fill-rule:evenodd;clip-rule:evenodd;stroke-linejoin:round;stroke-miterlimit:1.5"><path d="m51 80.596-14 7.656 12 5.294.612 25.775-12.612 7 12.612 5.166C56.821 142.204 73.925 142.162 88 137c11.063 5.66 26.787 2.904 28-2.479l13-.521v-11l-6 .5c-.197-6.849.417-2.662 0-8.5l7 1c.364-3.908.886-7.343 1-12h-8.516c1.311-.86-.35-1.805-.984-5-2.575-11.928-16.828-20.966-23.5-19-1.27-2.812-5.235-6.399-8.5-8.94-2.171-1.689-4.475-3.359-6.5-5.06-6-4.118-13-3.659-19 0-5.866 2.851-8.773 4.373-13 14.596Z" style="fill:#fff" transform="matrix(-1 0 0 1 167.365 0)"/><path d="M100 80.364c29.709-.724 36.668 74.042-11 56.636" style="fill:none;stroke:#000;stroke-width:3px" transform="matrix(-1 0 0 1 167.365 0)"/><path d="M49.612 84.038 36.343 91l12.778 4.996" style="fill:none;stroke:#000;stroke-width:3px" transform="matrix(-1 0 0 1 167.342 -2.996)"/><path d="M49.612 84.038 36.343 91l12.778 4.996" style="fill:none;stroke:#000;stroke-width:3px" transform="matrix(-1 0 0 1 166.977 35.462)"/><path d="M49 102v17-17Z" style="fill:none;stroke:#000;stroke-width:3px" transform="matrix(-1 0 0 1 167.365 -2.5)"/><path d="M53.208 77c-.883.328 5.222-12.857 15.792-13m14 2c9.219 5.19 12.763 8.967 14 13m26 25.5h7V116" style="fill:none;stroke:#000;stroke-width:3px" transform="matrix(-1 0 0 1 167.365 0)"/><path d="M120 104.5h6v12" style="fill:none;stroke:#000;stroke-width:3px" transform="matrix(-1 0 0 1 164.365 19)"/><path d="M123.514 115H129m-29-24c4.218 15.385 1.372 28.538-10 39" style="fill:none;stroke:#000;stroke-width:3px" transform="matrix(-1 0 0 1 167.365 0)"/><path d="M117 115h9" style="fill:none;stroke:#000;stroke-width:3px" transform="matrix(-1 0 0 1 164.365 19)"/></svg>

<?xml version="1.0" encoding="UTF-8" standalone="no"?>
<!DOCTYPE svg PUBLIC "-//W3C//DTD SVG 1.1//EN" "http://www.w3.org/Graphics/SVG/1.1/DTD/svg11.dtd">
<svg width="160" height="182" viewBox="0 0 160 182" version="1.1" xmlns="http://www.w3.org/2000/svg" xmlns:xlink="http://www.w3.org/1999/xlink" xml:space="preserve" xmlns:serif="http://www.serif.com/" style="fill-rule:evenodd;clip-rule:evenodd;stroke-linejoin:round;stroke-miterlimit:1.5;">
    <g transform="matrix(-1,0,0,1,167.365,0)">
        <g id="back-standing-sitting" serif:id="back-standing/sitting">
            <path d="M51,80.596L37,88.252L49,93.546L49.612,119.321L37,126.321L49.612,131.487C56.821,142.204 73.925,142.162 88,137C99.063,142.66 114.787,139.904 116,134.521L129,134L129,123L123,123.5C122.803,116.651 123.417,120.838 123,115L130,116C130.364,112.092 130.886,108.657 131,104L122.484,104C123.795,103.14 122.134,102.195 121.5,99C118.925,87.072 104.672,78.034 98,80C96.73,77.188 92.765,73.601 89.5,71.06C87.329,69.371 85.025,67.701 83,66C77,61.882 70,62.341 64,66C58.134,68.851 55.227,70.373 51,80.596Z" style="fill:white;"/>
            <path d="M100,80.364C129.709,79.64 136.668,154.406 89,137" style="fill:none;stroke:black;stroke-width:3px;"/>
            <g transform="matrix(1,0,0,1,0.0225023,-2.9964)">
                <path d="M49.612,84.038L36.343,91L49.121,95.996" style="fill:none;stroke:black;stroke-width:3px;"/>
            </g>
            <g transform="matrix(1,0,0,1,0.387939,35.4622)">
                <path d="M49.612,84.038L36.343,91L49.121,95.996" style="fill:none;stroke:black;stroke-width:3px;"/>
            </g>
            <g transform="matrix(1,0,0,1,0,-2.5)">
                <path d="M49,102L49,119L49,102Z" style="fill:none;stroke:black;stroke-width:3px;"/>
            </g>
            <path d="M53.208,77C52.325,77.328 58.43,64.143 69,64" style="fill:none;stroke:black;stroke-width:3px;"/>
            <path d="M83,66C92.219,71.19 95.763,74.967 97,79" style="fill:none;stroke:black;stroke-width:3px;"/>
            <path d="M123,104.5L130,104.5L130,116" style="fill:none;stroke:black;stroke-width:3px;"/>
            <g transform="matrix(1,0,0,1,3,19)">
                <path d="M120,104.5L126,104.5L126,116.5" style="fill:none;stroke:black;stroke-width:3px;"/>
            </g>
            <path d="M123.514,115L129,115" style="fill:none;stroke:black;stroke-width:3px;"/>
            <path d="M100,91C104.218,106.385 101.372,119.538 90,130" style="fill:none;stroke:black;stroke-width:3px;"/>
            <g transform="matrix(1,0,0,1,3,19)">
                <path d="M117,115L126,115" style="fill:none;stroke:black;stroke-width:3px;"/>
            </g>
        </g>
    </g>
</svg>
